X:1
T:Title
%%score [ ( 1 2 ) ( 3 4 ) ]
L:1/8
Q:1/4=96
M:2/4
K:Bb
V:1 treble-8 nm="Tenor I/II"
V:2 treble-8 
V:3 bass nm="Bass I/II"
V:4 bass 
V:1
"^Bright tempo" d || d d2 d | d d2 e | f f2 e | d f2 f | e e2 e | e2 e2 | d2 A2 | Bd ef | e g2 g | %10
w: When|You Wore a|Tul- ip, a|sweet yel- low|tul- ip, and|I wore a|big red|rose, _||When you ca-|
w: |||||||* a|big red rose, _|_ _ _|
 g e2 c | d f2 =e | fd _ed | c =e3 | =e e3 | _e2 =ee | _e4 | d d2 d | d d2 e | f f2 e | d f2 f | %21
w: ressed me, 'twas|then heav- en|blessed me, what a|bless- ing,|no one|knows. _ _||You made life|cheer- ie, when|you called me|dear- ie, 'twas|
w: |||||* no one|knows,|||||
 e e2 e | e2 g2 | (^f2 g2 | ^f)f ff | =f f2 =e | f g2 f | =e e2 ^d | =e e2 e | _e e2 e | (ee) e2 | %31
w: down where the|blue grass|grows, _|_ Your lips were|sweet- er than|ju- lep, when|you wore a|tul- ip, and|I wore a|big _ red|
w: ||||||||||
 d4- | d2 z2 |] %33
w: rose.|_|
w: ||
V:2
 F || F F2 G | B B2 c | d d2 c | B d2 c | B B2 A | B2 G2 | F4- | F4 | G e2 d | e G2 _G | F d2 ^c | %12
w: ||||||||||||
w: ||||||||||||
 dF GF | =E c3 | c d3 | c4- | c4 | F F2 G | B B2 c | d d2 c | B d2 c | B B2 A | B2 c2 | A4- | %24
w: ||||||||||||
w: |||knows,|||||||||
 AA BA | G d2 ^c | d e2 d | G c2 =B | c d2 G | B A2 G | (AB) c2 | B4- | B2 x2 |] %33
w: |||||||||
w: |||||||||
V:3
 B, || B, B,2 B, | F, F,2 F, | A, A,2 A, | F, B,2 _A, | G, G,2 ^F, | G,2 B,2 | B,2 F,2 | %8
w: |||||||* a|
 F,B, (A,_A,) | B, B,2 B, | B, B,2 B, | B, B,2 B, | B,B, G,G, | B, B,3 | B, B,3 | A,2 B,B, | A,4 | %17
w: big red rose, *|||||||||
 B, B,2 B, | F, F,2 F, | A, A,2 A, | F, B,2 _A, | G, G,2 ^F, | G,2 A,2 | C4- | CC DC | %25
w: ||||||||
 =B, B,2 _B, | =B, B,2 B, | _B, B,2 A, | B, B,2 B, | G, C2 B, | (F,G,) A,2 | F,4- | F,2 z2 |] %33
w: ||||||||
V:4
 B,, || B,, B,,2 B,, | B,, B,,2 B,, | F, F,2 F, | B,, B,,2 D, | E, E,2 E, | E,2 E,2 | B,,2 C,2 | %8
w: |||||||* a|
 D,B,, (C,D,) | E, E,2 E, | E, E,2 E, | B,, B,,2 G, | F,B,, =B,,B,, | C, C,3 | G,G, C,D, | %15
w: big red rose, _|_ _ _|||||* * no one|
 F,2 G,G, | F,F, E,C, | B,, B,,2 B,, | B,, B,,2 B,, | F, F,2 F, | B,, B,,2 D, | E, E,2 E, | %22
w: knows, no one|knows, bim, bim, bim,||||||
 E,2 E,2 | (D,2 E,2 | D,)D, D,D, | D, G,2 G, | G, G,2 G, | C, G,2 ^F, | G, G,2 C, | C, C,2 C, | %30
w: ||||||||
 (C,C,) F,2 | B,,4- | B,,2 x2 |] %33
w: |||

